X:214
T:I'm Just A Used To Be To You
C:Ricky Skaggs, Boone Creek
N:TablEdit
R:bluegrass
L:1/8
Q:1/4=225
M:4/4
K:C
z2 ^f2 f2 f2 | "B"^f2 ef d^d B^F | ^GB ^cd ^d2 eB | ^cd ^dB e2 c=d | ^dB ^G2 BG3 | 
"E"z2 E^F ^GB3 | "F#"^cd [^dB]e2c =d^d | "B"zB2^G2B2^c | "F#"zd2^d2^f2^g | "B"z2 b2 ^g2 g2 | 
^g2 gb g^f3 | z2 ^g2 d^d eA | eA d^d B^F ED | "E"E^F ^GB dE E^c | "F#"^cA d^d B^F ^GB | 
"B"z{^G}B2[^d2B2][e2B2][fB] | z[^f2B2][b2f2][a2f2][a=f] | z[a2e2][^d2B2][d2A2][A^D] | 
z8 | z8 | z8 | z8 | z8 | z8 | 


